symbols/web/edit_calendar/materialsymbolsrounded/edit_calendar_wght700gradN25_20px.svg

<svg xmlns="http://www.w3.org/2000/svg" height="20" width="20"><path d="M4.583 18.833q-1.104 0-1.854-.75t-.75-1.854V5.479q0-1.104.75-1.854t1.854-.75h.521v-.687q0-.396.334-.73.333-.333.75-.333.395 0 .718.333.323.334.323.73v.687h5.542v-.687q0-.396.333-.73.334-.333.75-.333.396 0 .719.333.323.334.323.73v.687h.521q1.104 0 1.854.75t.75 1.854v5.042h-2.604V8.417H4.583v7.812h5.313v2.604Zm0-12.062h10.834V5.479H4.583ZM19.104 15l-2.396-2.396.542-.542q.375-.374.885-.385.511-.01.907.385l.604.605q.396.395.385.906-.01.51-.385.885Zm-7.562 4.479v-1.187q0-.25.093-.48.094-.229.282-.416l4.125-4.125 2.396 2.396-4.126 4.125q-.187.187-.416.281-.229.094-.479.094h-1.188q-.312 0-.5-.188-.187-.187-.187-.5ZM4.583 6.771V5.479v1.292Z"/></svg>

<svg xmlns="http://www.w3.org/2000/svg" height="20" width="20"><path d="M4.583 18.833Q3.479 18.833 2.729 18.083Q1.979 17.333 1.979 16.229V5.479Q1.979 4.375 2.729 3.625Q3.479 2.875 4.583 2.875H5.104V2.188Q5.104 1.792 5.438 1.458Q5.771 1.125 6.188 1.125Q6.583 1.125 6.906 1.458Q7.229 1.792 7.229 2.188V2.875H12.771V2.188Q12.771 1.792 13.104 1.458Q13.438 1.125 13.854 1.125Q14.25 1.125 14.573 1.458Q14.896 1.792 14.896 2.188V2.875H15.417Q16.521 2.875 17.271 3.625Q18.021 4.375 18.021 5.479V10.521H15.417V8.417H4.583V16.229Q4.583 16.229 4.583 16.229Q4.583 16.229 4.583 16.229H9.896V18.833ZM4.583 6.771H15.417V5.479Q15.417 5.479 15.417 5.479Q15.417 5.479 15.417 5.479H4.583Q4.583 5.479 4.583 5.479Q4.583 5.479 4.583 5.479ZM19.104 15 16.708 12.604 17.25 12.062Q17.625 11.688 18.135 11.677Q18.646 11.667 19.042 12.062L19.646 12.667Q20.042 13.062 20.031 13.573Q20.021 14.083 19.646 14.458ZM11.542 19.479V18.292Q11.542 18.042 11.635 17.812Q11.729 17.583 11.917 17.396L16.042 13.271L18.438 15.667L14.312 19.792Q14.125 19.979 13.896 20.073Q13.667 20.167 13.417 20.167H12.229Q11.917 20.167 11.729 19.979Q11.542 19.792 11.542 19.479ZM4.583 6.771V5.479Q4.583 5.479 4.583 5.479Q4.583 5.479 4.583 5.479Q4.583 5.479 4.583 5.479Q4.583 5.479 4.583 5.479V6.771Z"/></svg>
